X: 16226
T: Greensleeves
R: jig
M: 6/8
K: Adorian
A|c2d e>fe|d2B G>AB|c2A A>GA|B2GE2|
A|c2d e>fe|d2B G>AB|c>BA ^G>FG|A3A2:|
z|g2g gfe|d2B G>AB|c2A A>GA|B6|
g2g gfe|d2B G>AB|c>BA ^G>FG|A3A2:|
A/B/|c2c cde|dBG GAB|cBA ABc|BGE E2 A/B/|
c2c cde|dBG GAB|cBA GE^G|A3A2:|
e/f/|gag gfe|dBG GBd|aba aba|gee e2e/f/|
gag gfe|dBG GAB|cBA GE^G|A3A2:|

